!!!COM: Anonymous
!!!CDT: fl. XV c.
!!!ODT: XV c.
!!!LYR:
!!!OTL: Bądź wiesioła Panno czysta
!!!PPR:
!!!PDT:
!!!PPP:
!!!ENC: dr Marcin Konik
!!!END: 2015-03-11
!!!YOO:
!!title: @{CDT}, @{OTL}, ed. @{ENC}
!!!YEM: Creative Commons CC/BY/NC/SA 4.0
!!!EED: Marcin Konik
!!!ONB: Encoded in vim by Marcin Konik
!!!CharacterEncoding: utf-8
!!!RDF**kern: l=long note in original notation
!!!RDF**kern: i=editorial accidental
!!muse2ps: z14jc180F
**kern	**kern	**kern
*staff3	*staff2	*staff1
*clefF4	*clefG2v8	*clefG2
*k[b-]	*k[b-]	*k[b-]
*M2/1	*M2/1	*M2/1
=1-	=1-	=1-
1D	1D	1d
2C	2A	2e
2AA	2A	2e
=2	=2	=2
1FF	1c	1f
2C	2e	2a
2D	2f	[2a
=3	=3	=3
1BB-	1d	2a]
.	.	2g
1AA	1e	1a
=4	=4	=4
2r	2r	2r
2DD	2d	2a
2DD	2d	2a
2DD	2B	2f
=5	=5	=5
1AA	1c	1e
2.C	2.e	2.a
4AA	4c	4f
=6	=6	=6
2BB-	2d	2g
2AA	1c	1f
1GG	.	.
.	2B	2e
=7	=7	=7
1FF	1c	1f
1AA	1c	2.a
.	.	4g
=8	=8	=8
2BB-	2d	2f
1GG	1B-	1e
2BB-	2d	2d
=9	=9	=9
1AA	2.c	2.f
.	4A	4d
2GG	2B	2e
2FF	[2A	[2d
=10	=10	=10
1EE	4A]	4d]
.	4G#	4c#
.	4G#	4c#
.	4F#	4B
1DD	1A	1d
==	==	==
*-	*-	*-
